svg/Pictogram/pictograms-aem-0093-cutting-severing_of_fingers_or_hand-blade.svg

<?xml version="1.0" encoding="ISO-8859-1" standalone="yes"?>
<svg height="304.014" width="304.015">
  <metadata>
    <rdf:RDF xmlns:cc="http://web.resource.org/cc/" xmlns:dc="http://purl.org/dc/elements/1.1/" xmlns:rdf="http://www.w3.org/1999/02/22-rdf-syntax-ns#">
      <cc:Work rdf:about="">
        <dc:title></dc:title>
        <dc:description></dc:description>
        <dc:subject>
          <rdf:Bag>
            <rdf:li></rdf:li>
          </rdf:Bag>
        </dc:subject>
        <dc:publisher>
          <cc:Agent rdf:about="http://www.unece.org/trans/danger/publi/ghs/pictograms.html">
            <dc:title>Source: UNECE GHS of Classification and Labeling of Chemicals, Source: AEM Pictorial Database, Source: AEM Pictorial Database, Source: AEM Pictorial Database, Source: AEM Pictorial Database</dc:title>
          </cc:Agent>
        </dc:publisher>
        <dc:creator>
          <cc:Agent>
            <dc:title></dc:title>
          </cc:Agent>
        </dc:creator>
        <dc:rights>
          <cc:Agent>
            <dc:title></dc:title>
          </cc:Agent>
        </dc:rights>
        <dc:date></dc:date>
        <dc:format>image/svg+xml</dc:format>
        <dc:type rdf:resource="http://purl.org/dc/dcmitype/StillImage"/>
        <cc:license rdf:resource="http://en.wikipedia.org/wiki/Public_domain"/>
        <dc:language>en</dc:language>
      </cc:Work>
    </rdf:RDF>
  </metadata>
  <defs><marker id="ArrowEnd" markerHeight="3" markerUnits="strokeWidth" markerWidth="4" orient="auto" refX="0" refY="5" viewBox="0 0 10 10"><path d="M 0 0 L 10 5 L 0 10 z"/></marker><marker id="ArrowStart" markerHeight="3" markerUnits="strokeWidth" markerWidth="4" orient="auto" refX="10" refY="5" viewBox="0 0 10 10"><path d="M 10 0 L 0 5 L 10 10 z"/></marker> </defs>
  <g id="g2958" transform="matrix(1.3532768,0,0,1.3532781,-53.207834,-52.192858)">
    <path d="M 142.851 155.905L 162.651 127.209L 107.534 55.7454L 52.0934 55.7454L 52.0934 80.4404C 52.0934 80.4404 77.8824 111.217 80.0654 114.963C 80.5074 115.717 80.3194 117.737 80.3194 117.737L 80.3194 172.67C 80.3194 172.67 79.7224 174.706 81.3234 177.459C 83.0894 180.483 84.3514 181.241 84.3514 181.241L 107.03 211.983C 107.03 211.983 113.655 208.264 114.589 199.381C 115.597 189.807 105.015 178.717 105.015 178.717C 105.015 178.717 105.171 169.319 105.519 169.397C 108.202 169.987 133.741 189.303 133.741 189.303L 148.358 216.264C 148.358 216.264 145.081 234.663 152.14 242.221C 157.683 248.163 164.487 248.272 164.487 248.272L 167.007 215.006L 152.972 186.03L 139.417 192.327L 142.851 155.905" style="stroke:none; fill-rule:evenodd; fill:#000000"/>
    <path d="M 143.378 186.498L 170.007 174.166L 251.921 55.8034L 217.151 55.7454L 146.073 158.225L 143.378 186.498" style="stroke:none; fill-rule:evenodd; fill:#000000"/>
    <path d="M 166.628 181.112L 194.726 190.057L 210.347 223.323C 210.347 223.323 200.519 226.096 195.733 222.569C 190.944 219.038 183.386 204.17 183.386 204.17C 183.386 204.17 166.171 199.073 163.98 196.487C 157.679 189.049 166.628 181.116 166.628 181.116" style="stroke:none; fill-rule:evenodd; fill:#000000"/>
    <path d="M 183.89 162.592L 205.308 168.639L 223.081 201.424C 223.081 201.424 210.659 203.252 205.675 200.01C 200.687 196.768 193.968 182.498 193.968 182.498C 193.968 182.498 186.03 180.862 182.628 178.467C 174.995 173.096 183.89 162.592 183.89 162.592" style="stroke:none; fill-rule:evenodd; fill:#000000"/>
    <path d="M 208.585 168.135L 227.737 165.866L 247.14 178.467C 247.14 178.467 241.851 185.522 235.55 184.514C 231.069 183.799 224.46 180.737 224.46 180.737L 215.64 181.491L 208.585 168.135" style="stroke:none; fill-rule:evenodd; fill:#000000"/>
    <path d="M 29.6204 265.393L 2.62042 265.393" style="stroke:#000000; stroke-width:0.5; fill:none"/>
    <path d="M 38.6204 274.393L 38.6204 301.393" style="stroke:#000000; stroke-width:0.5; fill:none"/>
    <path d="M 29.6204 38.6204L 2.62042 38.6204" style="stroke:#000000; stroke-width:0.5; fill:none"/>
    <path d="M 38.6204 29.6204L 38.6204 2.62042" style="stroke:#000000; stroke-width:0.5; fill:none"/>
    <path d="M 274.394 38.6204L 301.394 38.6204" style="stroke:#000000; stroke-width:0.5; fill:none"/>
    <path d="M 265.394 29.6204L 265.394 2.62042" style="stroke:#000000; stroke-width:0.5; fill:none"/>
    <path d="M 274.394 265.393L 301.394 265.393" style="stroke:#000000; stroke-width:0.5; fill:none"/>
    <path d="M 265.394 274.393L 265.394 301.393" style="stroke:#000000; stroke-width:0.5; fill:none"/>
  </g>
</svg>

<svg viewBox="0 0 304.01 304.01"><g transform="matrix(1.35328 0 0 1.35328-53.21-52.19)" fill-rule="evenodd"><path d="m142.85 155.91l19.8-28.696-55.12-71.46h-55.44v24.695c0 0 25.789 30.777 27.972 34.523.442.754.254 2.774.254 2.774v54.933c0 0-.597 2.036 1 4.789 1.766 3.02 3.03 3.782 3.03 3.782l22.679 30.742c0 0 6.625-3.719 7.559-12.602 1.01-9.574-9.574-20.664-9.574-20.664 0 0 .156-9.398.504-9.32 2.683.59 28.22 19.906 28.22 19.906l14.617 26.961c0 0-3.277 18.399 3.782 25.957 5.543 5.942 12.347 6.05 12.347 6.05l2.52-33.27-14.03-28.976-13.555 6.297 3.434-36.422"/><path d="m143.38 186.5l26.629-12.332 81.914-118.36-34.77-.058-71.08 102.48-2.695 28.27"/><path d="m166.63 181.11l28.1 8.945 15.621 33.27c0 0-9.828 2.773-14.614-.754-4.789-3.531-12.347-18.399-12.347-18.399 0 0-17.215-5.097-19.406-7.683-6.301-7.438 2.648-15.371 2.648-15.371"/><path d="m183.89 162.59l21.418 6.05 17.773 32.785c0 0-12.422 1.828-17.406-1.414-4.988-3.242-11.707-17.512-11.707-17.512 0 0-7.938-1.636-11.34-4.03-7.633-5.371 1.262-15.875 1.262-15.875"/><path d="m208.59 168.13l19.15-2.269 19.403 12.601c0 0-5.289 7.05-11.59 6.05-4.481-.715-11.09-3.777-11.09-3.777l-8.82.754-7.05-13.356"/></g></svg>
